X: 3
T: 3. Spring Grove
M: 2/4
L: 1/8
Q: 1/4=140
K: D
f/g/ | fddd | g>fe>f | g>fe>d | B>d e f/g/ | fddd | g>ea>g | faAc | {c}d2 d :|!
|:b>gf>a | g>fe>d | {d}c2 BA |f>gaa | bg e (f/g/) | f>ae>f |  {c}d2 d :|!

